X: 17
T: Porcupine Dance
%R: jig
B: "Twenty Four Country Dances for the Year 1782", Thomas Skillern, ed. p.9 #1
F: http://www.vwml.org/browse/browse-collections-dance-tune-books/browse-skillerns1782#
Z: 2014 John Chambers <jc:trillian.mit.edu>
M: 6/8
L: 1/8
K: A
|:\
Aae cec | dBG A2E | Aae cec | fdc B3 |\
Aae cec | dBG A2E | Aae cec | dBG A3 :|
|:\
AEE CEE | B,EE A,EE | Ace Tf2e | edc B3 |\
AEE CEE | B,EE A,EE | Ace aed | cdB A3 :|
%%begintext align
%%   Change sides and back again Lead down
%% two Cu up again and cast off Lead thro' the
%% bottom Cu. and Cast up Lead thro' the top
%% Cu. Cast off and Hands Six round
%%endtext

%%sep 1 1 500
%%sep 1 1 500
